X: 25205
T: Malcolm Johnston
R: reel
M: 4/4
K: Adorian
|:dB|AAAB AAAB|GGGA B2EG|AAAB A2AB|egBd e2:|
zA|Beef ggge|dBGA B2GB|Beef gggf|feed e2zA|
Beef ggge|dBGA B2e/f/g|aaab gffe|edBd a3z||
|:GAA<A EAAB|BGGA B2EG|GAA<A EAAB|eAAB [1e2dB [2e2z:|
B|edef gBGB|dBGB B<BGB|edef gBGB|eAAB e2dB|
edef gBGB|dBGB B<BB2e/f/g|a2zb gffe|edB/c/d e3z||

